2 Export/Icons/Rounded/Like, Thumb.svg

<svg xmlns="http://www.w3.org/2000/svg" xmlns:xlink="http://www.w3.org/1999/xlink" width="24" height="24" viewBox="0 0 24 24">
  <defs>
    <path id="like,-thumb-a" d="M13.12 2.06L7.58 7.6c-.37.37-.58.88-.58 1.41V19c0 1.1.9 2 2 2h9c.8 0 1.52-.48 1.84-1.21l3.26-7.61C23.94 10.2 22.49 8 20.34 8h-5.65l.95-4.58c.1-.5-.05-1.01-.41-1.37-.59-.58-1.53-.58-2.11.01zM3 21c1.1 0 2-.9 2-2v-8c0-1.1-.9-2-2-2s-2 .9-2 2v8c0 1.1.9 2 2 2z"/>
  </defs>
  <g fill="none" fill-rule="evenodd">
    <polygon points="0 0 24 0 24 24 0 24" opacity=".87"/>
    <mask id="like,-thumb-b" fill="#fff">
      <use xlink:href="#like,-thumb-a"/>
    </mask>
    <use fill="#000" xlink:href="#like,-thumb-a"/>
    <g fill="#000" mask="url(#like,-thumb-b)">
      <rect width="24" height="24"/>
    </g>
  </g>
</svg>

<svg xmlns="http://www.w3.org/2000/svg" xmlns:xlink="http://www.w3.org/1999/xlink" width="24" height="24" viewBox="0 0 24 24">
  <defs>
    <path id="like,-thumb-a" d="M13.12,2.06 L7.58,7.6 C7.21,7.97 7,8.48 7,9.01 L7,19 C7,20.1 7.9,21 9,21 L18,21 C18.8,21 19.52,20.52 19.84,19.79 L23.1,12.18 C23.94,10.2 22.49,8 20.34,8 L14.69,8 L15.64,3.42 C15.74,2.92 15.59,2.41 15.23,2.05 C14.64,1.47 13.7,1.47 13.12,2.06 Z M3,21 C4.1,21 5,20.1 5,19 L5,11 C5,9.9 4.1,9 3,9 C1.9,9 1,9.9 1,11 L1,19 C1,20.1 1.9,21 3,21 Z"/>
  </defs>
  <g fill="none" fill-rule="evenodd">
    <polygon points="0 0 24 0 24 24 0 24" opacity=".87"/>
    <mask id="like,-thumb-b" fill="#fff">
      <use xlink:href="#like,-thumb-a"/>
    </mask>
    <use fill="#000" xlink:href="#like,-thumb-a"/>
    <g fill="#000" mask="url(#like,-thumb-b)">
      <rect width="24" height="24"/>
    </g>
  </g>
</svg>
